material/.icons/material/flask-remove.svg

<svg xmlns="http://www.w3.org/2000/svg" viewBox="0 0 24 24"><path d="M15.46 15.88l1.42-1.42L19 16.59l2.12-2.12 1.41 1.41L20.41 18l2.13 2.12-1.42 1.42L19 19.41l-2.12 2.12-1.41-1.41L17.59 18l-2.13-2.12M6 22c-1.66 0-3-1.34-3-3 0-.6.18-1.16.5-1.64L9 7.81V6c-.55 0-1-.45-1-1V4c0-1.1.9-2 2-2h4a2 2 0 012 2v1c0 .55-.45 1-1 1v1.81l2.5 4.37c-2 .52-3.64 2.08-4.24 4.08l-4.33-4.33-3.75 6.5c-.11.16-.18.36-.18.57 0 .55.45 1 1 1h7.34c.27.75.66 1.42 1.19 2H6m7-12c-.55 0-1 .45-1 1s.45 1 1 1 1-.45 1-1-.45-1-1-1z"/></svg>

<?xml version="1.0" encoding="UTF-8"?><!DOCTYPE svg PUBLIC "-//W3C//DTD SVG 1.1//EN" "http://www.w3.org/Graphics/SVG/1.1/DTD/svg11.dtd"><svg xmlns="http://www.w3.org/2000/svg" xmlns:xlink="http://www.w3.org/1999/xlink" version="1.1" id="mdi-flask-remove" width="24" height="24" viewBox="0 0 24 24"><path d="M15.46 15.88L16.88 14.46L19 16.59L21.12 14.47L22.53 15.88L20.41 18L22.54 20.12L21.12 21.54L19 19.41L16.88 21.53L15.47 20.12L17.59 18L15.46 15.88M6 22C4.34 22 3 20.66 3 19C3 18.4 3.18 17.84 3.5 17.36L9 7.81V6C8.45 6 8 5.55 8 5V4C8 2.9 8.9 2 10 2H14C15.11 2 16 2.9 16 4V5C16 5.55 15.55 6 15 6V7.81L17.5 12.18C15.5 12.7 13.86 14.26 13.26 16.26L8.93 11.93L5.18 18.43C5.07 18.59 5 18.79 5 19C5 19.55 5.45 20 6 20H13.34C13.61 20.75 14 21.42 14.53 22H6M13 10C12.45 10 12 10.45 12 11C12 11.55 12.45 12 13 12C13.55 12 14 11.55 14 11C14 10.45 13.55 10 13 10Z" /></svg>
